!!!OTL: FOLGE KIND FOLGE
!!!ARE: Europa, Mitteleuropa, Deutschland, Niederdeutsch
!!!SCT: E1831
!!!YEM: Copyright 1995, estate of Helmut Schaffrath.
**kern
*ICvox
*Ivox
*M4/4
*k[b-]
*F:
=1
{4f
4g
2a
=2
2cc
2a
=3
2cc
2a}
=4
{4cc
4b-
4a
4g
=5
2a
2f}
=6
{4f
4g
2a
=7
2cc
2a
=8
2cc
2a}
=9
{4cc
4b-
4a
4g
=10
2a
2f}
=11
{4a
4b-
4cc
4b-
=12
4a
4g
2f
=13
2g
2f}
=14
{4b-
4a
4g
4d
=15
2f
2f}
==
!!!AGN: Kinder - Lied
!!!ONB: ESAC (Essen Associative Code) Database: ERK3
!!!AMT: simple quadruple
!!!AIN: vox
!!!EED: Helmut Schaffrath
!!!EEV: 1.0
*-
